Origami/48x48/apps/7kaa.svg

<svg width="48" height="48" version="1" xmlns="http://www.w3.org/2000/svg">
 <rect x="4" y="29" width="40" height="16" rx="4" ry="4" style="opacity:.2"/>
 <rect x="4" y="28" width="40" height="16" rx="4" ry="4" style="fill:#4f4f4f"/>
 <path d="M 18.869141,3.9648438 17.714844,7.3808594 15.003906,5 14.054688,7.8027344 12.003906,6 10.994141,8.984375 9.0019531,8 8.7832031,11.375 6.0019531,10 5.7714844,13.570312 3,13.015625 3.7070312,16.550781 8,28.046875 40,28 44.292969,16.550781 45,13.015625 42.228516,13.570312 41.998047,10 39.216797,11.375 38.998047,8 37.005859,8.984375 35.996094,6 33.945312,7.8027344 32.996094,5 30.285156,7.3808594 29.130859,3.9648438 26.419922,6.3457031 26.007812,7.8828125 V 7 l -2,-3 L 24,4.0117188 23.992188,4 l -2,3 v 0.8828125 l -0.41211,-1.5371094 z" style="fill:#4f4f4f"/>
 <g style="fill:#ffffff;opacity:.1">
  <path d="m18.869141 3.9648438l-1.154297 3.4160156-2.710938-2.3808594-0.949218 2.8027344-2.050782-1.8027344-1.009765 2.984375-1.9921879-0.984375-0.21875 3.375-2.78125-1.375-0.2304687 3.570312-2.7714844-0.554687 0.2089844 1.041016 2.5625 0.513671 0.2304687-3.570312 2.78125 1.375 0.21875-3.375 1.9921879 0.984375 1.009765-2.984375 2.050782 1.8027344 0.949218-2.8027344 2.710938 2.3808594 1.154297-3.4160156 2.710937 2.3808593 0.41211 1.5371094v-0.8828125l2-3 0.007812 0.0117188 0.007812-0.0117188 2 3v0.8828125l0.41211-1.5371094 2.710937-2.3808593 1.154297 3.4160156 2.710938-2.3808594 0.949218 2.8027344 2.050782-1.8027344 1.009765 2.984375 1.992188-0.984375 0.21875 3.375 2.78125-1.375 0.230469 3.570312 2.5625-0.513671 0.208984-1.041016-2.771484 0.554687-0.230469-3.570312-2.78125 1.375-0.21875-3.375-1.992188 0.984375-1.009765-2.984375-2.050782 1.8027344-0.949218-2.8027344-2.710938 2.3808594-1.154297-3.4160156-2.710937 2.3808593-0.41211 1.5371094v-0.8828125l-2-3-0.007812 0.0117188-0.007812-0.0117188-2 3v0.8828125l-0.41211-1.5371094-2.710937-2.3808593z" style="fill:#ffffff"/>
 </g>
 <path d="m27.971188 19.970215a2.0002 2.0002 0 0 0 -1.970703 2.029297v5.705078a2.0002 2.0002 0 0 0 0 0.53125v1.509766a2.0002 2.0002 0 0 0 0 0.52539v5.728516a2.0002 2.0002 0 1 0 4 0v-2.677734l3.494141 3.99414a2.0007768 2.0007768 0 1 0 3.011718 -2.634765l-4.972656-5.681641 4.972656-5.683594a2.0007768 2.0007768 0 1 0 -3.011718 -2.634765l-3.494141 3.99414v-2.675781a2.0002 2.0002 0 0 0 -2.029297 -2.029297zm-15.970703 0.0293a2.0002 2.0002 0 1 0 0 4h4.697266c-2.601892 3.557219-3.697266 7.0347-3.697266 12a2.0002 2.0002 0 1 0 4 0c0-5.89174 1.024578-7.99478 5.445312-12.617188a2.0002 2.0002 0 0 0 -1.445312 -3.382812z" style="opacity:.2"/>
 <path d="m12.00097 20.999512h9c-4.567858 4.776242-6 7.80026-6 14" style="fill:none;stroke-linecap:round;stroke-linejoin:round;stroke-width:4;stroke:#ffb73c"/>
 <path d="m28.000485 20.999512v14" style="fill:none;stroke-linecap:round;stroke-linejoin:round;stroke-width:4;stroke:#ffb73c"/>
 <path d="m35.000485 20.999512-7 8.000485" style="fill:none;stroke-linecap:round;stroke-linejoin:round;stroke-width:4;stroke:#ffb73c"/>
 <path d="m35.000485 34.999512-7-7.999515" style="fill:none;stroke-linecap:round;stroke-linejoin:round;stroke-width:4;stroke:#ffb73c"/>
 <path transform="matrix(.76714123 0 0 .77509108 4.3829158 .89963584)" d="m25.571673 22.062393-10.428328-18.062393 20.856655-6e-7z" style="opacity:.2"/>
 <path transform="matrix(.76714123 0 0 .77509108 4.3829158 -.10036416)" d="m25.571673 22.062393-10.428328-18.062393 20.856655-6e-7z" style="fill:#f43e3e"/>
 <path d="m16 3l0.572266 1h14.855468l0.572266-1h-16z" style="fill:#ffffff;opacity:.1"/>
</svg>

<svg xmlns="http://www.w3.org/2000/svg" width="48" height="48" version="1">
 <rect style="opacity:0.2" width="40" height="16" x="4" y="29" rx="4" ry="4"/>
 <rect style="fill:#4f4f4f" width="40" height="16" x="4" y="28" rx="4" ry="4"/>
 <path style="fill:#4f4f4f" d="M 18.869141,3.9648438 17.714844,7.3808594 15.003906,5 14.054688,7.8027344 12.003906,6 10.994141,8.984375 9.0019531,8 8.7832031,11.375 6.0019531,10 5.7714844,13.570312 3,13.015625 3.7070312,16.550781 8,28.046875 40,28 44.292969,16.550781 45,13.015625 42.228516,13.570312 41.998047,10 39.216797,11.375 38.998047,8 37.005859,8.984375 35.996094,6 33.945312,7.8027344 32.996094,5 30.285156,7.3808594 29.130859,3.9648438 26.419922,6.3457031 26.007812,7.8828125 V 7 l -2,-3 L 24,4.0117188 23.992188,4 l -2,3 v 0.8828125 l -0.41211,-1.5371094 z"/>
 <g style="fill:#ffffff;opacity:0.1">
  <path style="fill:#ffffff" d="M 18.869141 3.9648438 L 17.714844 7.3808594 L 15.003906 5 L 14.054688 7.8027344 L 12.003906 6 L 10.994141 8.984375 L 9.0019531 8 L 8.7832031 11.375 L 6.0019531 10 L 5.7714844 13.570312 L 3 13.015625 L 3.2089844 14.056641 L 5.7714844 14.570312 L 6.0019531 11 L 8.7832031 12.375 L 9.0019531 9 L 10.994141 9.984375 L 12.003906 7 L 14.054688 8.8027344 L 15.003906 6 L 17.714844 8.3808594 L 18.869141 4.9648438 L 21.580078 7.3457031 L 21.992188 8.8828125 L 21.992188 8 L 23.992188 5 L 24 5.0117188 L 24.007812 5 L 26.007812 8 L 26.007812 8.8828125 L 26.419922 7.3457031 L 29.130859 4.9648438 L 30.285156 8.3808594 L 32.996094 6 L 33.945312 8.8027344 L 35.996094 7 L 37.005859 9.984375 L 38.998047 9 L 39.216797 12.375 L 41.998047 11 L 42.228516 14.570312 L 44.791016 14.056641 L 45 13.015625 L 42.228516 13.570312 L 41.998047 10 L 39.216797 11.375 L 38.998047 8 L 37.005859 8.984375 L 35.996094 6 L 33.945312 7.8027344 L 32.996094 5 L 30.285156 7.3808594 L 29.130859 3.9648438 L 26.419922 6.3457031 L 26.007812 7.8828125 L 26.007812 7 L 24.007812 4 L 24 4.0117188 L 23.992188 4 L 21.992188 7 L 21.992188 7.8828125 L 21.580078 6.3457031 L 18.869141 3.9648438 z"/>
 </g>
 <path style="opacity:0.2" d="m 27.971188,19.970215 a 2.0002,2.0002 0 0 0 -1.970703,2.029297 v 5.705078 a 2.0002,2.0002 0 0 0 0,0.53125 v 1.509766 a 2.0002,2.0002 0 0 0 0,0.52539 v 5.728516 a 2.0002,2.0002 0 1 0 4,0 v -2.677734 l 3.494141,3.99414 a 2.0007768,2.0007768 0 1 0 3.011718,-2.634765 l -4.972656,-5.681641 4.972656,-5.683594 a 2.0007768,2.0007768 0 1 0 -3.011718,-2.634765 l -3.494141,3.99414 v -2.675781 a 2.0002,2.0002 0 0 0 -2.029297,-2.029297 z m -15.970703,0.0293 a 2.0002,2.0002 0 1 0 0,4 h 4.697266 c -2.601892,3.557219 -3.697266,7.0347 -3.697266,12 a 2.0002,2.0002 0 1 0 4,0 c 0,-5.89174 1.024578,-7.99478 5.445312,-12.617188 a 2.0002,2.0002 0 0 0 -1.445312,-3.382812 z"/>
 <path style="fill:none;stroke:#ffb73c;stroke-width:4;stroke-linecap:round;stroke-linejoin:round" d="m 12.00097,20.999512 h 9 c -4.567858,4.776242 -6,7.80026 -6,14"/>
 <path style="fill:none;stroke:#ffb73c;stroke-width:4;stroke-linecap:round;stroke-linejoin:round" d="m 28.000485,20.999512 v 14"/>
 <path style="fill:none;stroke:#ffb73c;stroke-width:4;stroke-linecap:round;stroke-linejoin:round" d="m 35.000485,20.999512 -7,8.000485"/>
 <path style="fill:none;stroke:#ffb73c;stroke-width:4;stroke-linecap:round;stroke-linejoin:round" d="m 35.000485,34.999512 -7,-7.999515"/>
 <path style="opacity:0.2" d="M 25.571673,22.062393 15.143345,4.0000003 36,3.9999997 Z" transform="matrix(0.76714123,0,0,0.77509108,4.3829158,0.89963584)"/>
 <path style="fill:#f43e3e" d="M 25.571673,22.062393 15.143345,4.0000003 36,3.9999997 Z" transform="matrix(0.76714123,0,0,0.77509108,4.3829158,-0.10036416)"/>
 <path style="opacity:0.1;fill:#ffffff" d="M 16 3 L 16.572266 4 L 31.427734 4 L 32 3 L 16 3 z"/>
</svg>
